src/topics/icons/dropbox.svg

<svg height="239" preserveAspectRatio="xMidYMid" viewBox="0 0 256 239" width="256" xmlns="http://www.w3.org/2000/svg"><path d="m52.0690243 90.8713318-52.0690243-41.6988463 75.3070498-49.17172299 52.6920602 43.98411389-75.9297367 46.8867349 75.9299917 46.8859727-52.692061 43.986655-75.30704984-49.171723zm75.9311027 46.8862522 52.694602 43.986655 75.304509-49.171723-52.069374-41.7016672zm127.999873-88.585861-75.304508-49.171723-52.694602 43.9841138 75.929737 46.886735zm-127.845853 98.049117-52.8470972 43.854487-22.6124476-14.764733v16.55409l75.4595448 45.254964 75.462086-45.254964v-16.55409l-22.609906 14.764733z" fill="#007ee5"/></svg>

<?xml version="1.0" encoding="UTF-8" standalone="no"?>
<svg width="256px" height="239px" viewBox="0 0 256 239" version="1.1" xmlns="http://www.w3.org/2000/svg" xmlns:xlink="http://www.w3.org/1999/xlink" preserveAspectRatio="xMidYMid">
    <g>
        <path d="M52.0690243,90.8713318 L0,49.1724855 L75.3070498,0.000762509919 L127.99911,43.9848764 L52.0693733,90.8716113 L127.999365,137.757584 L75.307304,181.744239 L0.000254158116,132.572516 L52.0690243,90.8713318 L52.0690243,90.8713318 Z M128.000127,137.757584 L180.694729,181.744239 L255.999238,132.572516 L203.929864,90.8708488 L128.000127,137.757584 Z M256,49.171723 L180.695492,0 L128.00089,43.9841138 L203.930627,90.8708488 L256,49.171723 Z M128.154147,147.22084 L75.3070498,191.075327 L52.6946022,176.310594 L52.6946022,192.864684 L128.154147,238.119648 L203.616233,192.864684 L203.616233,176.310594 L181.006327,191.075327 L128.154147,147.22084 Z" fill="#007EE5"></path>
    </g>
</svg>
